lib/flags/l/SI.svg

<svg xmlns="http://www.w3.org/2000/svg" fill="none" viewBox="0 0 32 24"><mask id="SI_svg__a" width="32" height="24" x="0" y="0" mask-type="alpha" maskUnits="userSpaceOnUse"><path fill="#fff" d="M0 0H32V24H0z"/></mask><g mask="url(#SI_svg__a)"><path fill="#2E42A5" fill-rule="evenodd" d="M0 0V24H32V0H0Z" clip-rule="evenodd"/><mask id="SI_svg__b" width="32" height="24" x="0" y="0" mask-type="alpha" maskUnits="userSpaceOnUse"><path fill="#fff" fill-rule="evenodd" d="M0 0V24H32V0H0Z" clip-rule="evenodd"/></mask><g mask="url(#SI_svg__b)"><path fill="#F7FCFF" fill-rule="evenodd" d="M0 0V8H32V0H0Z" clip-rule="evenodd"/><path fill="#C51918" fill-rule="evenodd" d="M0 16V24H32V16H0Z" clip-rule="evenodd"/><path fill="#2E42A5" fill-rule="evenodd" d="M13.7402 5.03617C13.7402 5.03617 11.6355 4.04224 9.0177 4.04224C6.3999 4.04224 4.29517 5.03617 4.29517 5.03617C4.29517 5.03617 4.52939 9.03089 4.89959 11.1471C5.05766 12.0506 5.81739 13.3685 6.5052 13.9922C7.28916 14.7032 9.0177 15.5455 9.0177 15.5455C9.51791 15.2008 10.4532 15.0458 11.6486 13.9922C12.844 12.9387 13.1412 11.1471 13.1412 11.1471L13.7402 5.03617Z" clip-rule="evenodd"/><path fill="#C51918" d="M13.462 4.90552L14.3386 5.34324L13.7368 11.3659C13.5261 12.6405 12.9988 13.6457 12.1555 14.3889C11.698 14.7921 11.2515 15.0933 10.7728 15.3436C10.5026 15.4849 9.37222 16.0672 9.38206 16.0624C9.26881 16.117 9.18293 16.1648 9.11317 16.2129L9.00384 16.2882L8.88581 16.2307C7.71505 15.6602 6.62274 14.8925 6.07993 14.4002C5.33895 13.7282 4.55766 12.3532 4.3911 11.401C4.14205 9.97736 3.9187 8.01645 3.76196 5.34324L4.54936 4.9313C4.70492 7.58438 4.89271 9.69929 5.13726 11.0972C5.28195 11.9243 6.0024 13.1923 6.65963 13.7884C7.14536 14.2288 7.9279 14.7173 9.00384 15.2485C9.06802 15.2109 9.13915 15.1737 9.22051 15.1344C9.22281 15.1333 9.95472 14.8083 10.2091 14.6753C10.6552 14.4421 11.0699 14.1623 11.4969 13.786C12.2455 13.1263 12.7127 12.2378 12.9016 11.1091L13.462 4.90552Z"/><path fill="#fff" fill-rule="evenodd" d="M5.54211 11.0242C5.54211 11.0242 5.7329 11.6079 6.0856 12.2633C6.60355 12.3999 6.92047 12.3928 7.02064 12.2806C7.31042 11.9563 8.34147 11.8177 8.53385 12.0948C8.65253 12.2657 9.06971 12.3839 9.52587 12.2275L9.47501 12.2365C9.55425 12.2077 9.73984 12.1341 9.85423 12.0888C9.90204 12.0699 9.93741 12.0558 9.94738 12.0521C10.1191 11.9873 10.2453 11.9533 10.3739 11.9437C10.535 11.9317 10.6895 11.9617 10.8532 12.0397C11.2132 12.2111 11.6572 12.2909 11.9596 12.239C12.3293 11.5952 12.5929 11.0242 12.5929 11.0242L10.8376 9.3396L10.1399 10.0967L8.98076 8.44409L8.0103 10.0967L7.26616 9.3396L5.54211 11.0242ZM6.55688 13.0145C6.47584 12.9052 6.39927 12.7924 6.32729 12.6784C6.77655 12.7604 7.08161 12.7173 7.25132 12.5273C7.33148 12.4376 7.56932 12.3506 7.83992 12.3142C7.96608 12.2973 8.08712 12.293 8.17992 12.3019C8.22251 12.306 8.25683 12.3126 8.27993 12.3206C8.28741 12.3232 8.28718 12.3229 8.27941 12.3117L8.27799 12.3097C8.4849 12.6056 9.04668 12.7642 9.57673 12.5715L9.52587 12.5805C9.66923 12.5364 9.92742 12.4349 10.0202 12.3984L10.0202 12.3984L10.0525 12.3857C10.1997 12.3302 10.3011 12.3029 10.3957 12.2958C10.5048 12.2877 10.6077 12.3077 10.7245 12.3633C11.0432 12.5151 11.4137 12.6054 11.7402 12.6077C11.6706 12.7203 11.5988 12.8322 11.5254 12.941C11.2716 12.9999 10.8789 12.9225 10.5621 12.7495C10.414 12.6686 10.2726 12.6372 10.1252 12.6497C10.0086 12.6597 9.89556 12.6946 9.74285 12.7607C9.73393 12.7645 9.70257 12.7788 9.66032 12.798C9.56044 12.8434 9.39975 12.9164 9.33134 12.945L9.38877 12.9334C8.99233 13.0863 8.64531 12.9736 8.54624 12.8099C8.36943 12.5179 7.44281 12.6608 7.18212 12.9954C7.11261 13.0846 6.90287 13.1009 6.55688 13.0145ZM6.90187 13.4234C6.9214 13.4435 6.94113 13.4633 6.96104 13.4827C7.86423 14.3633 8.98076 14.795 8.98076 14.795C8.98076 14.795 10.3106 14.3926 11.0654 13.5453C11.1298 13.473 11.1943 13.3947 11.2585 13.312C10.9833 13.2983 10.6807 13.2087 10.418 13.0653C10.3215 13.0126 10.2384 12.9941 10.1502 13.0016C10.0723 13.0082 9.98684 13.0346 9.86149 13.0889C9.85811 13.0903 9.84991 13.094 9.83786 13.0995C9.7611 13.134 9.52799 13.239 9.38877 13.2863L9.44621 13.2748C8.979 13.4696 8.48294 13.3158 8.28946 13.024C8.27232 13.0173 8.24541 13.0113 8.21132 13.0076C8.13369 12.9991 8.03119 13.0032 7.92404 13.0197C7.69444 13.0551 7.49392 13.1392 7.42762 13.2243C7.31614 13.3674 7.14131 13.4306 6.90187 13.4234Z" clip-rule="evenodd"/><path fill="#FECA00" fill-rule="evenodd" d="M7.14685 5.88604H6.44373L6.98907 5.37516 6.44373 4.8353H7.14685L7.44373 4.31128 7.7418 4.8353H8.44373L7.92565 5.34274 8.38567 5.88604H7.7418L7.44373 6.43904 7.14685 5.88604zM10.4606 5.88604H9.75745L10.3028 5.37516 9.75745 4.8353H10.4606L10.7574 4.31128 11.0555 4.8353H11.7574L11.2394 5.34274 11.6994 5.88604H11.0555L10.7574 6.43904 10.4606 5.88604zM8.59997 7.56744H7.89685L8.44219 7.05656 7.89685 6.5167H8.59997L8.89685 5.99268 9.19493 6.5167H9.89685L9.37878 7.02413 9.8388 7.56744H9.19493L8.89685 8.12043 8.59997 7.56744z" clip-rule="evenodd"/></g></g></svg>

<svg xmlns="http://www.w3.org/2000/svg" fill="none" viewBox="0 0 32 24"><mask id="SI_svg__a" width="32" height="24" x="0" y="0" maskUnits="userSpaceOnUse"><path fill="#fff" d="M0 0h32v24H0z"/></mask><g mask="url(#SI_svg__a)"><path fill="#2E42A5" fill-rule="evenodd" d="M0 0v24h32V0H0z" clip-rule="evenodd"/><mask id="SI_svg__b" width="32" height="24" x="0" y="0" maskUnits="userSpaceOnUse"><path fill="#fff" fill-rule="evenodd" d="M0 0v24h32V0H0z" clip-rule="evenodd"/></mask><g mask="url(#SI_svg__b)"><path fill="#F7FCFF" fill-rule="evenodd" d="M0 0v8h32V0H0z" clip-rule="evenodd"/><path fill="#C51918" fill-rule="evenodd" d="M0 16v8h32v-8H0z" clip-rule="evenodd"/><path fill="#2E42A5" fill-rule="evenodd" d="M13.74 5.036s-2.104-.994-4.722-.994c-2.618 0-4.723.994-4.723.994s.234 3.995.605 6.111c.158.904.917 2.222 1.605 2.845.784.711 2.513 1.554 2.513 1.554.5-.345 1.435-.5 2.63-1.554 1.196-1.053 1.493-2.845 1.493-2.845l.6-6.11z" clip-rule="evenodd"/><path fill="#C51918" d="M13.462 4.906l.877.437-.602 6.023c-.21 1.275-.738 2.28-1.582 3.023a6.846 6.846 0 01-1.382.955c-.27.141-1.4.723-1.39.719-.114.054-.2.102-.27.15l-.11.075-.117-.057c-1.17-.57-2.263-1.338-2.806-1.83-.741-.673-1.522-2.048-1.689-3-.249-1.423-.472-3.384-.629-6.058l.787-.412c.156 2.654.344 4.768.588 6.166.145.828.865 2.096 1.523 2.692.485.44 1.268.928 2.344 1.46a2.67 2.67 0 01.217-.114c.002-.002.734-.326.988-.46a6.37 6.37 0 001.288-.889c.748-.66 1.216-1.548 1.405-2.677l.56-6.203z"/><path fill="#fff" fill-rule="evenodd" d="M5.542 11.024s.19.584.544 1.24c.518.136.834.129.935.017.29-.325 1.32-.463 1.513-.186.119.17.536.289.992.132l-.051.01c.08-.03.265-.103.38-.148.047-.02.082-.033.092-.037a1.5 1.5 0 01.427-.108.925.925 0 01.48.096c.36.171.803.251 1.106.199.37-.644.633-1.215.633-1.215L10.838 9.34l-.698.757-1.16-1.653-.97 1.653-.744-.757-1.724 1.684zm1.015 1.99a5.45 5.45 0 01-.23-.335c.45.081.755.038.924-.152.08-.09.318-.176.589-.213.126-.017.247-.02.34-.012.043.004.077.01.1.019.007.002.007.002 0-.01l-.002-.001c.207.296.769.454 1.299.261l-.051.01a9.33 9.33 0 00.494-.183l.033-.012a1.23 1.23 0 01.343-.09.627.627 0 01.329.067c.318.152.689.242 1.015.245-.07.112-.141.224-.215.333-.253.059-.646-.019-.963-.192a.753.753 0 00-.437-.1c-.116.01-.23.046-.382.112l-.083.037c-.1.045-.26.118-.329.147l.058-.012c-.397.153-.744.04-.843-.123-.177-.292-1.103-.15-1.364.185-.07.09-.28.106-.625.02zm.345.41l.059.059c.903.88 2.02 1.312 2.02 1.312s1.33-.402 2.084-1.25c.065-.072.13-.15.194-.233a2.02 2.02 0 01-.841-.247.455.455 0 00-.268-.063.941.941 0 00-.289.087l-.023.01c-.077.035-.31.14-.45.187l.058-.011c-.467.195-.963.04-1.157-.251a.325.325 0 00-.078-.016 1.158 1.158 0 00-.287.012c-.23.035-.43.12-.496.204-.112.143-.287.207-.526.2z" clip-rule="evenodd"/><path fill="#FECA00" fill-rule="evenodd" d="M7.147 5.886h-.703l.545-.51-.545-.54h.703l.297-.525.298.524h.702l-.518.508.46.543h-.644l-.298.553-.297-.553zm3.313 0h-.703l.546-.51-.546-.54h.704l.296-.525.299.524h.701l-.518.508.46.543h-.643l-.299.553-.296-.553zM8.6 7.567h-.703l.545-.51-.545-.54H8.6l.297-.524.298.524h.702l-.518.507.46.543h-.644l-.298.553-.297-.552z" clip-rule="evenodd"/></g></g></svg>
